src/img/svg/slider-twitter.svg

<svg width="15" height="12" viewBox="0 0 15 12" fill="none" xmlns="http://www.w3.org/2000/svg">
<path d="M15 1.42062C14.4422 1.66154 13.8478 1.82123 13.2281 1.89877C13.8656 1.524 14.3522 0.935077 14.5809 0.225231C13.9866 0.574154 13.3303 0.820615 12.6309 0.958154C12.0666 0.366462 11.2622 0 10.3847 0C8.68219 0 7.31156 1.36062 7.31156 3.02862C7.31156 3.26862 7.33219 3.49938 7.38281 3.71908C4.82625 3.59631 2.56406 2.38985 1.04437 0.552C0.779062 1.00523 0.623438 1.524 0.623438 2.08246C0.623438 3.13108 1.17188 4.06062 1.98937 4.59877C1.49531 4.58954 1.01063 4.44831 0.6 4.22585C0.6 4.23508 0.6 4.24708 0.6 4.25908C0.6 5.73046 1.66594 6.95262 3.06375 7.23415C2.81344 7.30154 2.54063 7.33385 2.2575 7.33385C2.06063 7.33385 1.86187 7.32277 1.67531 7.28215C2.07375 8.48123 3.20438 9.36277 4.54875 9.39138C3.5025 10.1972 2.17406 10.6828 0.735938 10.6828C0.48375 10.6828 0.241875 10.6717 0 10.6412C1.36219 11.5062 2.97656 12 4.7175 12C10.3763 12 13.47 7.38462 13.47 3.384C13.47 3.25015 13.4653 3.12092 13.4587 2.99262C14.0691 2.56615 14.5819 2.03354 15 1.42062Z" fill="#03A9F4"/>
</svg>

<svg width="15" height="12" fill="none" xmlns="http://www.w3.org/2000/svg"><path d="M15 1.42a6.49 6.49 0 0 1-1.772.479A3.02 3.02 0 0 0 14.581.225a6.203 6.203 0 0 1-1.95.733A3.104 3.104 0 0 0 10.385 0C8.682 0 7.312 1.36 7.312 3.029c0 .24.02.47.07.69A8.75 8.75 0 0 1 1.045.552c-.265.453-.42.972-.42 1.53A3.02 3.02 0 0 0 1.988 4.6 3.073 3.073 0 0 1 .6 4.226v.033c0 1.471 1.066 2.694 2.464 2.975-.25.068-.523.1-.807.1a2.76 2.76 0 0 1-.582-.052 3.099 3.099 0 0 0 2.874 2.11 6.24 6.24 0 0 1-3.813 1.29c-.252 0-.494-.01-.736-.04A8.755 8.755 0 0 0 4.718 12c5.658 0 8.752-4.615 8.752-8.616a8.27 8.27 0 0 0-.011-.391A6.082 6.082 0 0 0 15 1.42z" fill="#03A9F4"/></svg>
